X:1014
T:Miss McNeill's.
M:C
L:1/8
Q:1/4=120
N:bar 6 is printed |A>d (fed) b>ee>f|
Z:Jack Campin * www.campin.me.uk * 2009
K:D
f|d/d/d d>A     F>G```A>=c  |G>=c`E>c    G>ce^c|d/d/d dA     FG```A=c   |GE=cE  D2  D :|
f|d2   (f/e/d) (a>d) (f/e/d)|A>d (f/e/d) b>ee>f|d2   (f/e/d) a>d (f/e/d)|F>Dg>e f>(dd)f|
  d2    f/e/d   ad   (f/e/d)|A>d (f/e/d) e>BB`e|d>f```e>g    f>b``ag    |f>de>c d>D`D |]
<end>
<start>
